public/avatar/shoe/83.svg

<svg xmlns:xlink="http://www.w3.org/1999/xlink" height="38.3" width="36.05" xmlns="http://www.w3.org/2000/svg"><use height="14.65" transform="translate(8.05 13.4)" width="24.6" xlink:href="#a"/><defs><g id="a" fill-rule="evenodd"><path d="M8.1 4.8q1.4.15.2 1.95-6.7 5.8-14.65 6.35-5.65.5-7.95-1.15-2.5-1.75-.65-2.85.35-3.85 2.8-6 1.75-1.6 3.6-2.4.3-.15.7-2.1.5-.2 2.4 1.2l6.9-.4Q3.9-.55 5.9 1.1q1.95 1.55 2.2 3.7" fill="#832c00" transform="translate(15.75 1.45)"/><path d="M7.15 5.6q1.15-.05.1 1-6.05 4.9-13.5 5.45-5.4.4-7.15-.85-1.85-1.4-.25-1.6.9-.15 1.6 1 5.95 1.75 13.2-1.45 3.55-1.65 6-3.55" fill="#868688" transform="translate(15.75 1.45)"/><path d="M7.15 5.6Q.75 10.65-4.6 11.2q-3.75.45-6.55-.1-2.6-.6-2.5-1.5v-.5l.45-1.95q.8-2.2 2.25-3.45 1.9-1.6 3.2-2.05L-7.2-.3q.65-.15 1.95 1.1L1.5.45Q6.6.5 7.15 5.6" fill="#ba4e00" transform="translate(15.75 1.45)"/><path d="M1.6.95q3.35.1 3.3 1.6.05 1.1-5.15 2.75-1.55.55-2.6-1.4l-1.7-2.6L1.6.95" fill="#411300" transform="translate(15.75 1.45)"/><path d="m-7.05.15 2.4 1.95q.95 1.2 2.05 3.5-.35.15-2.8-3.1L-7.15.8l.1-.65" fill="#da7d24" transform="translate(15.75 1.45)"/><path d="m6.45 3.4.3.9q-7 5.85-14.35 5.6l-4.25-.8-1.55-.65.15-.7q6 2.9 13.4-.45 3.8-1.7 6.3-3.9" fill="#d0d034" transform="translate(15.75 1.45)"/><path d="M-11.15 3.8-9 2.3q3.25.6 5 3.65 1.35 2.4 1.25 4.85l-3.6.55-.2-2.4q-.8-2.9-2.75-4.3l-1.85-.85" fill="#d0d034" transform="translate(15.75 1.45)"/><path d="m-6.55 9 3.5-.6.3 1-3.7.55-.1-.95" fill="#ffffa3" transform="translate(15.75 1.45)"/><path d="M1.9 4.55q1.3-.6 2.55-1.25.45 1.25.75 3.75l-2.55 1.5-.75-4" fill="#d0d034" transform="translate(15.75 1.45)"/><path d="m2.4 6.25 2.4-1.6.2.95-2.45 1.65-.15-1" fill="#ffffa3" transform="translate(15.75 1.45)"/><path d="m1.6.95-3.4.1Q-2.4.65-3 .6L.2.4l1.4.55" fill="#d0d034" transform="translate(15.75 1.45)"/></g></defs></svg>

<?xml version="1.0" encoding="UTF-8" standalone="no"?>
<svg xmlns:xlink="http://www.w3.org/1999/xlink" height="38.3px" width="36.05px" xmlns="http://www.w3.org/2000/svg">
  <g transform="matrix(1.0, 0.0, 0.0, 1.0, 23.8, 14.85)">
    <use height="14.65" transform="matrix(1.0, 0.0, 0.0, 1.0, -15.75, -1.45)" width="24.6" xlink:href="#shape0"/>
  </g>
  <defs>
    <g id="shape0" transform="matrix(1.0, 0.0, 0.0, 1.0, 15.75, 1.45)">
      <path d="M8.1 4.8 Q9.5 4.95 8.3 6.75 1.6 12.55 -6.35 13.1 -12.0 13.6 -14.3 11.95 -16.8 10.2 -14.95 9.1 -14.6 5.25 -12.15 3.1 -10.4 1.5 -8.55 0.7 -8.25 0.55 -7.85 -1.4 -7.35 -1.6 -5.45 -0.2 L1.45 -0.6 Q3.9 -0.55 5.9 1.1 7.85 2.65 8.1 4.8" fill="#832c00" fill-rule="evenodd" stroke="none"/>
      <path d="M7.15 5.6 Q8.3 5.55 7.25 6.6 1.2 11.5 -6.25 12.05 -11.65 12.45 -13.4 11.2 -15.25 9.8 -13.65 9.6 -12.75 9.45 -12.05 10.6 -6.1 12.35 1.15 9.15 4.7 7.5 7.15 5.6" fill="#868688" fill-rule="evenodd" stroke="none"/>
      <path d="M7.15 5.6 Q0.75 10.65 -4.6 11.2 -8.35 11.65 -11.15 11.1 -13.75 10.5 -13.65 9.6 L-13.65 9.1 -13.2 7.15 Q-12.4 4.95 -10.95 3.7 -9.05 2.1 -7.75 1.65 L-7.2 -0.3 Q-6.55 -0.45 -5.25 0.8 L1.5 0.45 Q6.6 0.5 7.15 5.6" fill="#ba4e00" fill-rule="evenodd" stroke="none"/>
      <path d="M1.6 0.95 Q4.95 1.05 4.9 2.55 4.95 3.65 -0.25 5.3 -1.8 5.85 -2.85 3.9 L-4.55 1.3 1.6 0.95" fill="#411300" fill-rule="evenodd" stroke="none"/>
      <path d="M-7.05 0.15 L-4.65 2.1 Q-3.7 3.3 -2.6 5.6 -2.95 5.75 -5.4 2.5 L-7.15 0.8 -7.05 0.15" fill="#da7d24" fill-rule="evenodd" stroke="none"/>
      <path d="M6.45 3.4 L6.75 4.3 Q-0.25 10.15 -7.6 9.9 L-11.85 9.1 -13.4 8.45 -13.25 7.75 Q-7.25 10.65 0.15 7.3 3.95 5.6 6.45 3.4" fill="#d0d034" fill-rule="evenodd" stroke="none"/>
      <path d="M-11.15 3.8 L-9.0 2.3 Q-5.75 2.9 -4.0 5.95 -2.65 8.35 -2.75 10.8 L-6.35 11.35 -6.55 8.95 Q-7.35 6.05 -9.3 4.65 L-11.15 3.8" fill="#d0d034" fill-rule="evenodd" stroke="none"/>
      <path d="M-6.55 9.0 L-3.05 8.4 -2.75 9.4 -6.45 9.95 -6.55 9.0" fill="#ffffa3" fill-rule="evenodd" stroke="none"/>
      <path d="M1.9 4.55 Q3.2 3.95 4.45 3.3 4.9 4.55 5.2 7.05 L2.65 8.55 1.9 4.55" fill="#d0d034" fill-rule="evenodd" stroke="none"/>
      <path d="M2.4 6.25 L4.8 4.65 5.0 5.6 2.55 7.25 2.4 6.25" fill="#ffffa3" fill-rule="evenodd" stroke="none"/>
      <path d="M1.6 0.95 L-1.8 1.05 Q-2.4 0.65 -3.0 0.6 L0.2 0.4 1.6 0.95" fill="#d0d034" fill-rule="evenodd" stroke="none"/>
    </g>
  </defs>
</svg>
